src/assets/img/providers/bgaming.svg

<svg width="138" height="24" viewBox="0 0 138 24" fill="none" xmlns="http://www.w3.org/2000/svg">
<path d="M9.3041 6.45627H7.71537V10.6816H9.43931C10.0478 10.6816 10.4872 10.4788 10.859 10.107C11.2647 9.70134 11.3661 9.12669 11.3661 8.58585C11.3999 8.0112 11.2647 7.40275 10.859 6.99712C10.4534 6.59148 9.98015 6.45627 9.3041 6.45627Z" fill="#919EAB"/>
<path d="M9.81114 17.3408C10.352 17.3408 10.9604 17.2394 11.3323 16.8337C11.7379 16.3943 11.8393 15.752 11.8731 15.1436C11.8731 14.5351 11.8055 13.9267 11.4675 13.4197C11.1633 12.9802 10.6224 12.8112 10.0478 12.8112H7.78297V17.3408H9.81114Z" fill="#919EAB"/>
<path fill-rule="evenodd" clip-rule="evenodd" d="M17.8563 23.7972H1.22536C0.684513 23.7972 0.211273 23.3239 0.211273 22.7493V1.01408C0.211273 0.439437 0.65071 0 1.22536 0H17.8563C18.431 0 18.8704 0.439437 18.8704 1.01408V22.7831C18.8704 23.3577 18.431 23.7972 17.8563 23.7972ZM12.6844 11.5943C13.4618 11.7633 14.1379 12.2028 14.5435 12.8788C14.9492 13.5549 15.152 14.2647 15.152 15.1774C15.152 16.6985 14.7125 17.8816 13.8337 18.6253C12.921 19.4366 11.7041 19.8422 10.4872 19.8422H4.80832V3.98867H9.84494C11.1971 3.98867 12.3464 4.32669 13.3266 5.07036C14.3069 5.81402 14.7125 6.99712 14.7125 8.28162C14.7125 8.95768 14.5435 9.66754 14.2055 10.276C13.8675 10.8844 13.3266 11.3239 12.6844 11.5943Z" fill="#919EAB"/>
<path d="M38.6113 0H37.5972V23.7634H38.6113V0Z" fill="#919EAB"/>
<path d="M58.3863 0H57.2708V23.7634H58.3863V0Z" fill="#919EAB"/>
<path d="M137.518 23.7972H136.403V0H137.518V23.7972Z" fill="#919EAB"/>
<path d="M117.71 0H116.595V23.7634H117.71V0Z" fill="#919EAB"/>
<path d="M77.0789 0H78.1606V23.7634H77.0789V0Z" fill="#919EAB"/>
<path d="M97.9356 0H96.8201V23.7634H97.9356V0Z" fill="#919EAB"/>
<path fill-rule="evenodd" clip-rule="evenodd" d="M42.025 19.8084L46.9264 3.98867H49.056L53.8898 19.8084H51.6588L50.5095 15.8197H45.4391L44.2898 19.8084H42.025ZM47.9067 7.19993L45.9123 14.0957H49.9349L47.9743 7.19993H47.9067Z" fill="#919EAB"/>
<path d="M28.5717 13.4534V11.7632H33.4731V17.5097C33.0337 18.2196 32.4252 18.828 31.7154 19.2337C30.7689 19.8083 29.6872 20.0111 28.6055 20.0111C27.1182 20.0111 25.6309 19.5379 24.583 18.49C23.5689 17.5097 23.0618 16.0224 23.0618 14.1632V9.53226C23.0618 7.70691 23.5689 6.28719 24.5154 5.30691C25.4956 4.25902 26.8816 3.75198 28.3351 3.75198C29.721 3.75198 31.0393 4.05621 32.0534 5.00269C32.9999 5.88156 33.4393 7.13226 33.4731 8.41677V8.48438H31.3435C31.3773 7.67311 31.1069 6.82804 30.5661 6.21959C30.0252 5.64494 29.214 5.44212 28.3689 5.44212C27.49 5.44212 26.6449 5.81395 26.1041 6.52381C25.5294 7.23367 25.2928 8.21395 25.2928 9.56607V14.2985C25.2928 15.6506 25.5971 16.6647 26.2055 17.3745C26.814 18.0844 27.6928 18.4562 28.6393 18.4562C29.2478 18.4562 29.89 18.3548 30.3971 18.0506C30.8027 17.814 31.0731 17.4421 31.2759 17.0365V13.4534H28.5717Z" fill="#919EAB"/>
<path d="M74.0025 3.98867H71.0954L67.7151 16.4957L64.3011 3.98867H61.4616V19.8084H63.6588V13.7239L63.4898 7.63937H63.5236L66.9715 19.8084H68.4588L71.9067 7.63937H71.9743L71.7715 13.7239V19.8084H74.0025V3.98867Z" fill="#919EAB"/>
<path d="M110.307 3.98867H112.504V19.8084H110.307L104.324 8.045H104.222V19.8084H102.025V3.98867H104.222L110.205 15.752L110.307 15.7182V3.98867Z" fill="#919EAB"/>
<path d="M91.2084 3.98867H83.738V5.67881H86.3746V18.0168H83.738V19.8084H91.2084V18.0506H88.5718V5.71261H91.2084V3.98867Z" fill="#919EAB"/>
<path d="M127.377 11.7634V13.4535H130.082V17.0028C129.879 17.4085 129.608 17.7803 129.203 18.0169C128.696 18.3211 128.054 18.4225 127.445 18.4225C126.499 18.4225 125.62 18.0507 125.011 17.3408C124.403 16.631 124.099 15.6169 124.099 14.2648V9.5324C124.099 8.18028 124.335 7.2 124.91 6.49014C125.451 5.78028 126.296 5.40845 127.175 5.40845C128.02 5.40845 128.831 5.61127 129.372 6.18592C129.913 6.79437 130.183 7.63944 130.149 8.4507H132.279V8.3831C132.245 7.09859 131.806 5.84789 130.859 4.96901C129.845 4.02254 128.527 3.71831 127.141 3.71831C125.687 3.71831 124.301 4.22535 123.321 5.27324C122.375 6.25352 121.868 7.67324 121.868 9.49859V14.1634C121.868 16.0225 122.375 17.5099 123.389 18.4901C124.437 19.538 125.924 20.0113 127.411 20.0113C128.493 20.0113 129.575 19.8085 130.521 19.2338C131.231 18.8282 131.839 18.2197 132.279 17.5099V11.7634H127.377Z" fill="#919EAB"/>
</svg>

<svg xmlns="http://www.w3.org/2000/svg" width="138" height="24" fill="none"><path fill="#919EAB" d="M9.304 6.456H7.715v4.226H9.44c.609 0 1.048-.203 1.42-.575.406-.406.507-.98.507-1.521.034-.575-.101-1.183-.507-1.589-.406-.406-.879-.54-1.555-.54ZM9.811 17.34c.541 0 1.15-.1 1.521-.506.406-.44.507-1.082.541-1.69 0-.609-.067-1.217-.405-1.724-.305-.44-.846-.609-1.42-.609H7.783v4.53h2.028Z"/><path fill="#919EAB" fill-rule="evenodd" d="M17.856 23.797H1.226c-.541 0-1.015-.473-1.015-1.048V1.014A.996.996 0 0 1 1.225 0h16.631a.996.996 0 0 1 1.014 1.014v21.77a.996.996 0 0 1-1.014 1.013Zm-5.172-12.203c.778.17 1.454.609 1.86 1.285.405.676.608 1.386.608 2.298 0 1.521-.44 2.705-1.318 3.448-.913.812-2.13 1.217-3.347 1.217H4.808V3.99h5.037c1.352 0 2.501.338 3.482 1.081.98.744 1.386 1.927 1.386 3.212 0 .676-.17 1.386-.507 1.994-.338.608-.88 1.048-1.522 1.318Z" clip-rule="evenodd"/><path fill="#919EAB" d="M38.611 0h-1.014v23.763h1.014V0ZM58.386 0h-1.115v23.763h1.115V0ZM137.518 23.797h-1.115V0h1.115v23.797ZM117.71 0h-1.115v23.763h1.115V0ZM77.079 0h1.082v23.763h-1.082V0ZM97.936 0H96.82v23.763h1.116V0Z"/><path fill="#919EAB" fill-rule="evenodd" d="m42.025 19.808 4.901-15.82h2.13l4.834 15.82h-2.231l-1.15-3.988h-5.07l-1.15 3.988h-2.264ZM47.907 7.2l-1.995 6.896h4.023L47.975 7.2h-.068Z" clip-rule="evenodd"/><path fill="#919EAB" d="M28.572 13.453v-1.69h4.901v5.747a5.046 5.046 0 0 1-1.758 1.724c-.946.574-2.028.777-3.11.777-1.487 0-2.974-.473-4.022-1.521-1.014-.98-1.521-2.468-1.521-4.327v-4.63c0-1.826.507-3.246 1.453-4.226.98-1.048 2.367-1.555 3.82-1.555 1.386 0 2.704.304 3.718 1.25.947.88 1.386 2.13 1.42 3.415v.067h-2.13c.034-.81-.236-1.656-.777-2.264-.54-.575-1.352-.778-2.197-.778-.879 0-1.724.372-2.265 1.082-.575.71-.811 1.69-.811 3.042v4.732c0 1.353.304 2.367.913 3.077.608.71 1.487 1.081 2.433 1.081.609 0 1.251-.101 1.758-.405.406-.237.676-.609.879-1.014v-3.584h-2.704ZM74.002 3.989h-2.907l-3.38 12.507-3.414-12.507h-2.84v15.82h2.198v-6.085l-.17-6.085h.035l3.448 12.17h1.487l3.448-12.17h.067l-.203 6.085v6.084h2.231V3.988ZM110.307 3.989h2.197v15.82h-2.197l-5.983-11.764h-.102v11.763h-2.197V3.988h2.197l5.983 11.764.102-.034V3.988ZM91.208 3.989h-7.47v1.69h2.637v12.338h-2.637v1.791h7.47v-1.757h-2.636V5.713h2.636V3.989ZM127.377 11.763v1.69h2.705v3.55c-.203.405-.474.777-.879 1.014-.507.304-1.149.405-1.758.405-.946 0-1.825-.371-2.434-1.081-.608-.71-.912-1.724-.912-3.076V9.532c0-1.352.236-2.332.811-3.042.541-.71 1.386-1.082 2.265-1.082.845 0 1.656.203 2.197.778.541.608.811 1.453.777 2.265h2.13v-.068c-.034-1.284-.473-2.535-1.42-3.414-1.014-.946-2.332-1.25-3.718-1.25-1.454 0-2.84.506-3.82 1.554-.946.98-1.453 2.4-1.453 4.226v4.664c0 1.86.507 3.347 1.521 4.327 1.048 1.048 2.535 1.521 4.022 1.521 1.082 0 2.164-.203 3.11-.777a5.05 5.05 0 0 0 1.758-1.724v-5.747h-4.902Z"/></svg>
